X:1
T:Title
%%score { ( 1 3 ) | 2 }
L:1/8
Q:1/4=100
M:4/4
K:G
V:1 treble nm="Grand Piano"
V:3 treble 
V:2 bass 
V:1
 [B,G][B,G][DF][DF] EE E2 | DEFD G4 | BBAA GG F2 | EAEA D4 | [Ac][Ac][FA][FA] BB G2 | z4 z2 B2 | %6
w: Frank~L.~Bristow * * * * * *||||||
 [Ac][Ac][FA][FA] BB G2 |[M:3/4] AA FF [G,B,G]2 |[M:1/4] B,D |[M:4/4] G2 G>G G2 AG | %10
w: ||||
[M:3/4] GF FF F2 |[M:1/4] [FA][GB] |[M:4/4] [Ac]FFF F2 EF |[M:3/4] AG [B,G][B,G] [B,G]2 | %14
w: ||||
[M:1/4] B,D |[M:4/4] G2 G>G G2 AG |[M:3/4] GF FF F2 |[M:1/4] [FA][GB] |[M:4/4] [Ac]FFF F2 EF | %19
w: |||||
[M:3/4] AG [B,G][B,G] [B,G]2 |] %20
w: |
V:2
 G,,G,,A,,B,, [C,C][C,C] [C,C]2 | [D,C][D,C][D,C][D,C] [G,B,]4 | %2
 [G,DG][G,DG][A,DF][A,DF] [A,^CE][K:bass][A,CE] [A,D]2 | [A,^C][A,C][G,C][G,C] F,4 | %4
 D,D,D,D,[K:treble] [G,G][G,D][K:bass] [G,B,]2 | [D,C][D,C][D,A,][D,A,] [G,B,][F,C] .[G,D]2 | %6
 D,D,D,D,[K:treble] [G,G][G,D][K:bass] [G,B,]2 |[M:3/4] [D,C][D,C] [D,C][D,C] G,,2 |[M:1/4] B,,D, | %9
[M:4/4] [G,B,]2 [G,B,]>[G,B,] [G,B,]2 [F,C][G,B,] |[M:3/4] [A,C][D,D] [D,D][D,D] [D,D]2 | %11
[M:1/4] D,D, |[M:4/4] D,D,[D,D][D,C] [D,C]2 [D,C][D,C] | %13
[M:3/4] [G,C][G,B,] [G,,G,][G,,G,] [G,,G,]2 |[M:1/4] B,,D, | %15
[M:4/4] [G,B,]2 [G,B,]>[G,B,] [G,B,]2 [F,C][G,B,] |[M:3/4] [A,C][D,D] [D,D][D,D] [D,D]2 | %17
[M:1/4] D,D, |[M:4/4] D,D,[D,D][D,C] [D,C]2 [D,C][D,C] | %19
[M:3/4] [G,C][G,B,] [G,,G,][G,,G,] [G,,G,]2 |] %20
V:3
 x8 | x8 | x8 | x8 | x8 | AAFF GA z G | x8 |[M:3/4] x6 |[M:1/4] x2 |[M:4/4] x8 |[M:3/4] x6 | %11
[M:1/4] x2 |[M:4/4] x8 |[M:3/4] x6 |[M:1/4] x2 |[M:4/4] x8 |[M:3/4] x6 |[M:1/4] x2 |[M:4/4] x8 | %19
[M:3/4] x6 |] %20

